markets/COIN.svg

<svg width="42" height="42" viewBox="0 0 42 42" fill="none" xmlns="http://www.w3.org/2000/svg">
<circle cx="21" cy="21" r="21" fill="#0052FF"/>
<path fill-rule="evenodd" clip-rule="evenodd" d="M24.3697 7.09859C26.2904 7.5962 27.5465 8.1632 29.1379 9.25087C30.9607 10.4965 32.7762 12.5798 33.7798 14.5773C34.409 15.8297 35.0042 17.7939 35.2093 19.2949L35.2836 19.8386L31.6643 19.8085L28.0451 19.7784L27.8565 19.0936C27.3546 17.2724 25.9915 15.58 24.3301 14.7155C23.2181 14.1371 22.2626 13.9041 21.0028 13.9041C17.9415 13.9041 15.4308 15.6846 14.2875 18.6665C14.0262 19.3484 13.992 19.6049 13.9881 20.9197C13.9835 22.5011 14.0952 23.0201 14.7004 24.2295C15.5854 25.9979 17.309 27.3521 19.3434 27.8772C20.2056 28.0998 21.7585 28.1 22.7018 27.8776C24.3773 27.4826 26.1534 26.1817 27.0377 24.7015C27.453 24.0063 27.9648 22.7034 27.9648 22.3412C27.9648 22.1244 28.0692 22.118 31.6148 22.118H35.2648L35.2008 22.6602C35.0989 23.5228 34.605 25.4517 34.2837 26.2426C32.6493 30.2648 29.3512 33.316 25.2452 34.6044C21.2835 35.8474 17.0001 35.2884 13.3865 33.0565C12.0422 32.2262 9.94919 30.1657 9.06935 28.8062C6.36526 24.6285 5.98578 19.458 8.05302 14.9576C9.36335 12.1048 12.1309 9.33726 14.9837 8.02693C16.0071 7.55683 17.4584 7.0962 18.5972 6.87992C19.9986 6.61388 22.9268 6.72482 24.3697 7.09859Z" fill="white"/>
</svg>

<svg xmlns="http://www.w3.org/2000/svg" width="42" height="42" fill="none"><circle cx="21" cy="21" r="21" fill="#0052FF"/><path fill="#fff" fill-rule="evenodd" d="M24.37 7.099c1.92.497 3.177 1.064 4.768 2.152 1.823 1.245 3.638 3.329 4.642 5.326.629 1.253 1.224 3.217 1.43 4.718l.074.544-3.62-.03-3.619-.03-.189-.685c-.501-1.822-1.865-3.514-3.526-4.379-1.112-.578-2.067-.81-3.327-.81-3.061 0-5.572 1.78-6.716 4.761-.26.682-.295.939-.299 2.254-.005 1.581.107 2.1.712 3.31.885 1.768 2.609 3.122 4.643 3.647.863.223 2.416.223 3.359 0 1.675-.394 3.451-1.695 4.336-3.175.415-.696.927-1.999.927-2.36 0-.218.104-.224 3.65-.224h3.65l-.064.542c-.102.863-.596 2.792-.917 3.583-1.635 4.022-4.933 7.073-9.039 8.361-3.962 1.243-8.245.684-11.859-1.547-1.344-.83-3.437-2.891-4.317-4.25-2.704-4.178-3.083-9.349-1.016-13.85 1.31-2.852 4.078-5.62 6.93-6.93 1.024-.47 2.475-.93 3.614-1.147 1.402-.266 4.33-.155 5.773.219Z" clip-rule="evenodd"/></svg>
